X: 1
T:Mac an Irish
M:C
L:1/8
Q:80
C:Trad.
S:Strathspey
K:HP
|: {g}A3/2B/2{Gdc}d3/2e/2{g}f/2a3/2{fg}f2|
{gef}e3/2d/2{gde}d/2{c}d3/2{g}B/2d3/2{gef}e2|
{g}A3/2B/2{Gdc}d3/2e/2{g}f/2a3/2{fg}f2|  !
{g}f3/2e/2{g}d/2{e}B3/2{g}A2{GAG}A2:| [|
a2{g}a3/2g/2{a}f/2a3/2{fg}f2|
{gef}e3/2d/2{gde}d/2{c}d3/2{g}B/2d3/2{gef}e2|  !
a2{g}a3/2g/2{a}f/2a3/2{fg}f2|
{g}f3/2e/2{g}d/2{e}B3/2{g}A2{GAG}A2| |
a2{g}a3/2g/2{a}f/2a3/2{fg}f2|  !
{gef}e3/2d/2{gde}d/2{c}d3/2{g}B/2d3/2{gef}e2|
{g}A3/2B/2{Gdc}d3/2e/2{g}f/2a3/2{fg}f2|
{g}f3/2e/2{g}d/2{e}B3/2{g}A2{GAG}A2|] |:  !
{g}A3/2B/2{Gdc}d3/2A/2{g}B/2{d}A3/2{Gdc}d2|
{g}A3/2B/2{Gdc}d3/2e/2{gfg}f3/2e/2{g}f/2a3/2|
{g}A3/2B/2{Gdc}d3/2A/2{g}B/2{d}A3/2{Gdc}d3/2e/2|  !
{gfg}f3/2e/2{g}d/2{e}B3/2{g}A2{GAG}A2:| [|
{g}A3/2a/2{g}a3/2A/2{gfg}f3/2A/2{ag}a3/2A/2|
{g}A3/2a/2{g}a3/2f/2{gef}e3/2d/2{g}B/2d3/2|  !
{g}A3/2a/2{g}a3/2A/2{gfg}f3/2A/2{ag}a3/2A/2|
{gfg}f3/2e/2{g}d/2{e}B3/2{g}A2{GAG}A2| |
{g}A3/2a/2{g}a3/2A/2{gfg}f3/2A/2{ag}a3/2A/2|  !
{g}A3/2a/2{g}a3/2f/2{gef}e3/2d/2{g}B/2d3/2|
a/2g/2fg/2f/2e{g}f/2e/2d{g}e/2f/2g|
{gfg}f3/2e/2{g}d/2{e}B3/2{g}A2{GAG}A2|]  !
